X:1
T:Test
T:I' te vurria vasà
T:E. DI CAPUA
T:V. RUSSO
T:Tu duorme oje Rosa mia... e duorme a suonno chino, mentr'io guardo, 'ncantato, stu musso curallino... E chesti ccarne fresche, e chesti ttrezze nere, mme mettono, 'into core, mille male penziere! I' te vurría vasá...
T:Sento stu core tujo ca sbatte comm'a ll'onne! Durmenno, angelo mio, chisà tu a chi te suonne... 'A gelusia turmenta stu core mio malato: Te suonne a me?...Dimméllo! O pure suonne a n'ato? I' te vurría vasá...
T:« Ah! Che bell'aria fresca... Ch'addore 'e malvarosa... E tu durmenno staje, 'ncopp'a sti ffronne 'e rosa! 'O sole, a poco a poco, pe' stu ciardino sponta... 'o viento passa e vasa stu ricciulillo 'nfronte! I' te vurría vasá...
T:by IMSLP - Scritto con MuseScore, un software libero e gratuito: http://musescore.org/it
T:by IMSLP - Scritto con MuseScore, un software libero e gratuito: http://musescore.org/it
T:by IMSLP - Scritto con MuseScore, un software libero e gratuito: http://musescore.org/it
Z:by IMSLP - Scritto con MuseScore, un software libero e gratuito: http://musescore.org/it
%%score 1 { ( 2 5 ) | ( 3 4 ) }
L:1/8
Q:1/4=90
M:6/8
K:Ab
V:1 treble nm="Canto"
V:2 treble nm="Piano"
V:5 treble 
V:3 bass 
V:4 bass 
V:1
"^Andantino  " z6 | z6 | z6 | z6 |"^Canto" c c c c2 c |{/d} (c/B/ d2-) d2 z | B B B B2 B | %7
w: ||||Ah! che bel\- l'a\- ria|fre- * sca; *|Ch'ad\- dor' e mal\- va\-|
{/c} (B/A/ c2-) c2 z | A A A A2 A |{/B} (A/G/ D2-) D2 z | G G G G2 G |{/B} (G/F/ C2-) C2 z | %12
w: ro- * sa *|E tu dur\- men\- no|sta- * je *|'Ncopp' a sti fronn' e|ro- * sa. *|
 c c c c2 c |{/d} (c/B/ d2-) d2 z | B B B B2 B |{/c} (B/A/ c2-) c2 z | A A A A2 A | %17
w: O so\- lea po\- coa|po- * co *|pe stu ciar\- di\- no|spo- * nte; *|'O vien\- to pa\- sae|
{/B} (A/G/ d2-) d2 z | c c c (3B/c/B/ G A | (3G/A/G/ F2- F2 z ||[K:F] c c c d2 e | %21
w: va- * sa *|Stu ric\- ciu\- lil _ _ _ lo|'nfro- * * nte *|I te vur\- ria va\-|
 (3e/f/e/ d2- d2 z | c c c d2 e | (3e/f/e/ d2- d2 z |"^cres:" d d d e2{/a} f | e3 c d{/f} e | %26
w: sà _ _ _ _|I te vur\- ria va\-|sà _ _ _ _|Ma oco re nun m'o|di\- cee te sce\-|
 d3 B c{/_e} d | c3- c2 z | f!f! f f e2 e | d3- d2 z |!p! d d d d2 d |({dc)} B3- B2 z | %32
w: tà e te sce\-|tà..... *|I me vur\- riaad\- dur\-|mi.... *|I me vur\- riaad\- dur\-|mi.... *|
 (B c d) (3e/f/e/d e | c2 c A B c |"^rall." d3 d e c | f3 f z !fermata!z!D.C.! |] %36
w: Vi\- ci\- no'o scia- * * * to|to\- jo n'o\- ra pu\-|r'i' n'o\- ra pu|r'i'.... *|
V:2
 (f/!p!a/ c2-) cd=e | (f/!mf!a/ c2-) c/(a/g/f/_e/d/) |!<(! c/F/G/=A/B/=B/ [F_Ac]z!>![=EGc]!<)! | %3
 !>![FAc] z z4 |!p! ccc c2 c |{/d} (c/B/ d2-) d2 z | BBB B2 B |{/c} (B/A/ c2-) c2 z | %8
 AA!mf!A A2 A |{/B} (A/G/ D2-) D2 z |!p! GGG G2 G |{/B} (G/F/ C2-) C2 z |!p! ccc c2 c | %13
{/d} (c/B/ d2-) d2 z | BBBBBB |{/c} (B/A/ c2-) c2 z | AA!mf!A A2 A |{/B} (A/G/ d2-) d2 z | %18
!p! ccc (3B/c/B/GA | (3G/A/G/ F2- F2 z ||[K:F] [Ac] [Ac] [Ac] [Ad]2 [Ae] | (3e/f/e/ d2- d2 z | %22
 [Ac] [Ac] [Ac] [Ad]2 [Ae] | (3e/f/e/ d2- d2 z |!p! [Bd][Bd][Bd] [ce]2{/a} [df] | %25
!p! [ce]3 [Ac][Bd]{/f}[ce] | [Bd]3 [GB][Ac]{/_e}[Bd] | [Ac]3- [Ac]2 z | %28
 !>![Adf][Adf][Adf] [G^ce]2 [Gce] | [FBd]3- [FBd]2 z | [FBd][FBd][FBd] [^Fc]2 [DFc] | %31
({dc)} [DGB]3- [DGB]2 z | [GB] [Ac] [Bd] (3e/f/e/d e | c3 ([FA][GB][Ac]) | d3 dec | %35
 (([Af]3 [fac'f'])) z !fermata!z |] %36
V:3
 F,, z [A,CF] [B,DF] z z | F,, z [A,CF] [B,DF] z z |"^cres:" F,,/F/=E/_E/=C/_C/ Cz[C,C] | %3
"^deciso" [F,,F,]!p! z [A,CF][A,CF] z [A,CF] | !>![F,,C,]2 [A,CF] [A,CF]2 [A,CF] | %5
 !>![F,,C,]2 [A,CF] [A,CF]2 [A,CF] | !>![F,,C,]2 [B,C=E] [B,CE]2 [B,CE] | %7
 !>![F,,C,]2 [A,CF] [A,CF]2 [A,CF] |"^cres:" !>![F,,F,]2 !>![E,,E,] !>![D,,D,]2 !>![C,,C,] | %9
 !>![B,,,B,,]2 D, D,2 D, | !>![=E,,=E,]2 !>![_D,,_D,] !>![C,,C,]2 !>![B,,,B,,] | %11
 !>![A,,,A,,]2 [C,F,] [C,F,]2 [C,F,] | !>![F,,C,]2 [A,CF] [A,CF]2 [A,CF] | %13
 !>![F,,C,]2 [A,CF] [A,CF]2 [A,CF] | !>![F,,C,]2 [B,C=E] [B,CE]2 [B,CE] | %15
 !>![F,,C,]2 [A,CF] [A,CF]2 [A,CF] |"^cres:" !>![F,,F,]2 !>![E,,E,] !>![D,,D,]2 !>![C,,C,] | %17
 !>![B,,,C,]2 [G,B,E] [G,B,E]2 [G,B,E] | [C,,C,]"^dim:" z [G,B,C] [B,C=E]2 [C,,C,] | %19
 [F,,F,]2 [F,=A,C] [F,A,C]2 [F,A,C] ||[K:F] F,3 A,3 | F,3 A,3 | F,3 G,3 | G,3 B,3 | G,3 E,3 | %25
 C,3 E,3 | C,3 E,3 | !>!F,3 !>!E,3 | !>!D,/A,/D/F/D/A,/ A,,/A,/^C/E/C/A,/ | %29
 B,,/F,/B,/D/B,/F,/ D,/F,/B,/D/B,/F,/ | B,,/F,/B,/D/B,/F,/ A,,/D,/A,/C/A,/D,/ | %31
 G,,/D,/G,/B,/G,/D,/ D,,/D,/G,/B,/G,/D,/ | %32
!>(! !>![B,,,D,]/F,/G,/B,/G,/!>)!D,/ [=G,,,=B,,]/D,/F,/=B,/F,/D,/ | %33
 ([F,,,C,]/F,/A,/C/A,/F,/) ([B,,,C,]/F,/A,/C/A,/F,/) | (C,/G,/B,/C/B,/G,/) (C,/G,/B,/C/G,/C,/) | %35
 ([F,,F,]/C,/A,,/F,,/C,,/A,,,/ [F,,,E,,]) z !fermata!z |] %36
V:4
 x6 | x6 | x6 | x6 | x6 | x6 | x6 | x6 | x6 | x6 | x6 | x6 | x6 | x6 | x6 | x6 | x6 | x6 | x6 | %19
 x6 ||[K:F] F,/C/F/C/F/C/ A,/C/F/C/F/C/ | F,/C/F/C/F/C/ A,/C/F/C/F/C/ | %22
 F,/C/F/C/F/C/ G,/C/E/C/E/C/ | G,/C/E/C/E/C/ B,/C/E/C/E/C/ | G,/C/E/C/E/C/ E,/C/E/C/E/C/ | %25
 C,/C/E/C/E/C/ E,/C/E/C/E/C/ | C,/C/E/C/E/C/ E,/C/E/C/E/C/ | F,/A,/C/A,/C/A,/ E,/A,/C/A,/C/A,/ | %28
 x6 | x6 | x6 | x6 | x6 | x6 | x6 | x6 |] %36
V:5
 x6 | x6 | x6 | x6 | x6 | x6 | x6 | x6 | x6 | x6 | x6 | x6 | x6 | x6 | x6 | x6 | x6 | x6 | x6 | %19
 x6 ||[K:F] x6 | A3 A2 z | x6 | B3 B3 | x6 | x6 | x6 | x6 | x6 | x6 | x6 | x6 | x3 (G3 | A3) x3 | %34
 B3 B2 B | x6 |] %36

